X:1
T:Title
%%score { ( 1 3 ) | ( 2 4 ) }
L:1/8
M:3/4
K:Eb
V:1 treble nm="Grand Piano"
V:3 treble 
V:2 bass 
V:4 bass 
V:1
 z2 z2[Q:1/4=96] GG | G3 G FE | E D3 [DF][DF] | [DF]3 [Ac] [GB][FA] |[M:2/4] [EG]4 | %5
[M:1/4] [EG][FA] |[M:3/4] [GB]3 G AG | [EG] [DF]3 [DF][DB] | [Fd]4 [Ec]2 | [DB]4 GG | G3 G FE | %11
 E D3 [DF][DF] | [DF]3 [Ac] [GB][FA] | [B,EG]4 [B,EG][B,FA] | [EGB]3 [B,EG] [B,FA][EGB] | %15
 [EAc] [EAc]3 [EGB][B,EG] | [DF]2 G2 [B,FA]2 | G4 z2 |[M:6/8] EEE EEE | [DF]3- [DF]2 [DF]/[DF]/ | %20
 [DF][DF][DF] [DF]2 [DF] | [B,EG]3- [B,EG]2 [_DEG] | [CEA][CEA][CEA] [EAc][EAc][EAc] | %23
 [EGB]3- [EGB]2 [B,EG]/[B,EG]/ | [B,DF]3 [DB]3 | %25
 [EB]3- [EB]2 [G,E]/[=A,EF]/[Q:1/4=95][Q:1/4=93][Q:1/4=92][Q:1/4=90][Q:1/4=89][Q:1/4=88][Q:1/4=86] | %26
 [B,EG]3 [A,DF]3[Q:1/4=85][Q:1/4=83][Q:1/4=82][Q:1/4=80][Q:1/4=79][Q:1/4=78][Q:1/4=76][Q:1/4=75][Q:1/4=73] | %27
[M:5/8] [G,E]-[G,E]- [G,E]3 |] %28
V:2
 z2 z2 [E,B,E][E,B,E] | [E,B,E]3 [E,B,E] [E,A,B,][E,G,B,] | [B,,G,B,] [B,,F,B,]3 [B,,B,][B,,B,] | %3
 [B,,B,]3 [B,,B,] [B,,B,][B,,B,] |[M:2/4] [E,B,]4 |[M:1/4] [E,B,][E,B,] | %6
[M:3/4] [E,B,]3 [E,B,E] [E,CE][E,B,E] | [B,,B,] [B,,B,]3 [B,,B,][B,,B,] | [F,B,]4 [F,=A,]2 | %9
 [B,,B,]4 [E,B,E][E,B,E] | [E,B,E]3 [E,B,E] [E,A,B,][E,G,B,] | %11
 [B,,G,B,] [B,,F,B,]3 [B,,B,][B,,B,] | [B,,B,]3 [B,,B,] [B,,B,][B,,B,] | E,4 E,E, | E,3 E, E,E, | %15
 A, A,3 E,E, | z2 E2 B,,2 | [E,B,E]4 z2 | %18
[M:6/8] [E,G,B,][E,G,B,][E,G,B,] [E,G,B,][E,G,B,][E,G,B,] | [B,,B,]3- [B,,B,]2 [B,,B,]/[B,,B,]/ | %20
 [B,,B,][B,,B,][B,,B,] [B,,B,]2 [B,,B,] | E,3- E,2 E, | A,,A,,A,, A,,A,,A,, | E,3- E,2 E,/E,/ | %24
 B,,3 [B,,F,]3 | [E,G,]3- [E,G,]2 C,/C,/ | B,,3 B,,3 |[M:5/8] E,-E,- E,3 |] %28
V:3
 x6 | x6 | x6 | x6 |[M:2/4] x4 |[M:1/4] x2 |[M:3/4] x6 | x6 | x6 | x6 | x6 | x6 | x6 | x6 | x6 | %15
 x6 | B,4 z2 | x6 |[M:6/8] x6 | x6 | x6 | x6 | x6 | x6 | x6 | x6 | x6 |[M:5/8] x5 |] %28
V:4
 x6 | x6 | x6 | x6 |[M:2/4] x4 |[M:1/4] x2 |[M:3/4] x6 | x6 | x6 | x6 | x6 | x6 | x6 | x6 | x6 | %15
 x6 | B,,4 z2 | x6 |[M:6/8] x6 | x6 | x6 | x6 | x6 | x6 | x6 | x6 | x6 |[M:5/8] x5 |] %28

